svg/sport/skateboard_line.svg

<?xml version="1.0" encoding="UTF-8"?>
<svg width="24px" height="24px" viewBox="0 0 24 24" version="1.1" xmlns="http://www.w3.org/2000/svg" xmlns:xlink="http://www.w3.org/1999/xlink">
    <title>skateboard_line</title>
    <g id="Icon" stroke="none" stroke-width="1" fill="none" fill-rule="evenodd">
        <g id="Sport" transform="translate(-720.000000, 0.000000)">
            <g id="skateboard_line" transform="translate(720.000000, 0.000000)">
                <path d="M24,0 L24,24 L0,24 L0,0 L24,0 Z M12.5935,23.2578 L12.5819,23.2595 L12.5109,23.295 L12.4919,23.2987 L12.4767,23.295 L12.4057,23.2595 C12.3958,23.2564 12.387,23.259 12.3821,23.2649 L12.378,23.2758 L12.3609,23.7031 L12.3659,23.7235 L12.3769,23.7357 L12.4805,23.8097 L12.4953,23.8136 L12.5071,23.8097 L12.6107,23.7357 L12.6233,23.7197 L12.6267,23.7031 L12.6096,23.2758 C12.6076,23.2657 12.601,23.2593 12.5935,23.2578 Z M12.8584,23.1453 L12.8445,23.1473 L12.6598,23.2397 L12.6499,23.2499 L12.6472,23.2611 L12.6651,23.6906 L12.6699,23.7034 L12.6784,23.7105 L12.8793,23.8032 C12.8914,23.8069 12.9022,23.803 12.9078,23.7952 L12.9118,23.7812 L12.8777,23.1665 C12.8753,23.1546 12.8674,23.147 12.8584,23.1453 Z M12.143,23.1473 C12.1332,23.1424 12.1222,23.1453 12.1156,23.1526 L12.1099,23.1665 L12.0758,23.7812 C12.0751,23.7927 12.0828,23.8019 12.0926,23.8046 L12.1083,23.8032 L12.3092,23.7105 L12.3186,23.7024 L12.3225,23.6906 L12.3404,23.2611 L12.3372,23.2485 L12.3278,23.2397 L12.143,23.1473 Z" id="MingCute" fill-rule="nonzero"></path>
                <path d="M12.3536,5.98967 L11.6464,6.69678 C11.4512,6.89204 11.1346,6.89204 10.9393,6.69678 C10.7441,6.50152 10.7441,6.18494 10.9393,5.98967 L11.6464,5.28257 C11.8417,5.0873 12.1583,5.0873 12.3536,5.28257 C12.5488,5.47783 12.5488,5.79441 12.3536,5.98967 Z M9.52513,4.57546 C8.66984,5.43075 8.56382,6.75158 9.20707,7.72228 L7.72232,9.20703 C6.75161,8.56378 5.43078,8.6698 4.57549,9.52509 L3.86839,10.2322 C2.98992,11.1107 2.90188,12.4802 3.60427,13.4571 C2.29717,15.4011 2.50301,18.0599 4.22179,19.7786 C5.9406,21.4974 8.59945,21.7033 10.5434,20.3961 C11.5203,21.098 12.8894,21.0098 13.7677,20.1315 L14.4748,19.4244 C15.3299,18.5693 15.4361,17.2489 14.7933,16.2782 L16.2783,14.7931 C17.249,15.436 18.5695,15.3299 19.4247,14.4748 L20.1318,13.7677 C21.0101,12.8893 21.0983,11.5199 20.3961,10.5431 C21.7027,8.59919 21.4967,5.94084 19.7781,4.22228 C18.0596,2.50369 15.4012,2.29771 13.4573,3.60432 C12.4804,2.90184 11.1107,2.98985 10.2322,3.86835 L9.52513,4.57546 Z M12.3535,17.3031 C12.5487,17.1078 12.8653,17.1078 13.0606,17.3031 C13.2558,17.4983 13.2558,17.8149 13.0606,18.0102 L12.3535,18.7173 C12.1582,18.9125 11.8416,18.9125 11.6464,18.7173 C11.4511,18.522 11.4511,18.2054 11.6464,18.0102 C11.8821,17.7745 12.1178,17.5388 12.3535,17.3031 Z M13.0613,15.1817 L15.182,13.0611 C15.0974,12.4666 15.227,11.8474 15.5708,11.3283 L12.6717,8.4292 C12.1528,8.77298 11.5339,8.90267 10.9395,8.81827 L8.81831,10.9395 C8.90271,11.5339 8.77301,12.1528 8.42921,12.6717 L11.3282,15.5707 C11.8473,15.2267 12.4667,15.097 13.0613,15.1817 Z M9.91395,16.9849 L7.01499,14.0859 C6.50944,14.4209 5.90896,14.5526 5.32874,14.4811 C4.47541,15.6542 4.57783,17.3062 5.636,18.3644 C6.69405,19.4225 8.34579,19.525 9.51889,18.672 C9.44718,18.0915 9.57886,17.4907 9.91395,16.9849 Z M16.985,9.91404 C17.4907,9.57893 18.0915,9.44719 18.6719,9.51881 C19.5245,8.34574 19.4218,6.69437 18.3639,5.63649 C17.3059,4.57848 15.6543,4.47593 14.4812,5.32883 C14.5526,5.90903 14.4209,6.50948 14.0859,7.01499 L16.985,9.91404 Z M17.3034,12.3534 L18.0105,11.6463 C18.2057,11.4511 18.5223,11.4511 18.7176,11.6463 C18.9128,11.8416 18.9128,12.1582 18.7176,12.3534 L18.0105,13.0605 C17.8152,13.2558 17.4986,13.2558 17.3034,13.0605 C17.1081,12.8653 17.1081,12.5487 17.3034,12.3534 Z M5.98971,12.3535 C5.79445,12.5488 5.47786,12.5488 5.2826,12.3535 C5.08734,12.1583 5.08734,11.8417 5.2826,11.6464 L5.98971,10.9393 C6.18497,10.744 6.50155,10.744 6.69682,10.9393 C6.89208,11.1346 6.89208,11.4511 6.69682,11.6464 L5.98971,12.3535 Z" id="形状" fill="#09244B"></path>
            </g>
        </g>
    </g>
</svg>

<svg xmlns="http://www.w3.org/2000/svg" width="24" height="24"><g fill="none" fill-rule="evenodd"><path d="M24 0v24H0V0h24ZM12.594 23.258l-.012.002-.071.035-.02.004-.014-.004-.071-.036c-.01-.003-.019 0-.024.006l-.004.01-.017.428.005.02.01.013.104.074.015.004.012-.004.104-.074.012-.016.004-.017-.017-.427c-.002-.01-.009-.017-.016-.018Zm.264-.113-.014.002-.184.093-.01.01-.003.011.018.43.005.012.008.008.201.092c.012.004.023 0 .029-.008l.004-.014-.034-.614c-.003-.012-.01-.02-.02-.022Zm-.715.002a.023.023 0 0 0-.027.006l-.006.014-.034.614c0 .012.007.02.017.024l.015-.002.201-.093.01-.008.003-.011.018-.43-.003-.012-.01-.01-.184-.092Z"/><path fill="#09244B" d="m12.354 5.99-.708.707a.5.5 0 1 1-.707-.707l.707-.707a.5.5 0 0 1 .708.707ZM9.525 4.575a2.5 2.5 0 0 0-.318 3.147L7.722 9.207a2.5 2.5 0 0 0-3.147.318l-.707.707a2.5 2.5 0 0 0-.264 3.225 5.002 5.002 0 0 0 6.94 6.94 2.5 2.5 0 0 0 3.224-.265l.707-.708a2.5 2.5 0 0 0 .318-3.146l1.485-1.485c.971.643 2.292.537 3.147-.318l.707-.707a2.5 2.5 0 0 0 .264-3.225 5.002 5.002 0 0 0-6.939-6.939 2.5 2.5 0 0 0-3.225.264l-.707.707Zm2.829 12.728a.5.5 0 1 1 .707.707l-.707.707a.5.5 0 0 1-.708-.707l.707-.707Zm.707-2.121 2.121-2.12a2.5 2.5 0 0 1 .389-1.734l-2.9-2.899a2.5 2.5 0 0 1-1.731.39l-2.122 2.12a2.5 2.5 0 0 1-.389 1.733l2.9 2.899a2.5 2.5 0 0 1 1.732-.39Zm-3.147 1.803-2.899-2.9a2.5 2.5 0 0 1-1.686.396 3 3 0 0 0 4.19 4.191 2.5 2.5 0 0 1 .395-1.687Zm7.071-7.071a2.5 2.5 0 0 1 1.687-.395 3 3 0 0 0-4.19-4.19 2.5 2.5 0 0 1-.396 1.686l2.899 2.899Zm.318 2.44.707-.708a.5.5 0 0 1 .708.707l-.707.707a.5.5 0 1 1-.708-.707Zm-11.313 0a.5.5 0 1 1-.707-.708l.707-.707a.5.5 0 1 1 .707.707l-.707.707Z"/></g></svg>
